X:153
T:Port Cliffs Reel*
B:NFID.154  ("untitled reel")
153port_c
S:CC?
N:The last measure of the first part is not shown as a second ending
in the source. Even with that change, this tune seems a little
off-balance.
L:1/8
M:C
R:reel
Q:360
K:G
Bdgd BGdG|cBAc BGdG|Bdgd (3efg ec|1 BGAc BGdG:|2 cdef gabg||
dedB cBAB|cdef gabg|dedB dedc|BGAf gabg|
dedB cBAB|cdef (3ggg fa|gedg egfa|gedc BGdG||

%%%

